Site26/img/svg/t-ico.svg

<svg width="18" height="18" viewBox="0 0 18 18" fill="none" xmlns="http://www.w3.org/2000/svg">
<path d="M13.2463 0H4.75374C2.088 0 0 2.088 0 4.75374V13.2463C0 15.912 2.088 18 4.75374 18H13.2463C15.912 18 18 15.912 18 13.2463V4.75374C18 2.088 15.9114 0 13.2463 0ZM16.8387 13.2463C16.8387 15.2611 15.2605 16.8387 13.2463 16.8387H4.75374C2.73948 16.8387 1.16129 15.2605 1.16129 13.2463V4.75374C1.16129 2.73948 2.73948 1.16129 4.75374 1.16129H13.2463C15.2611 1.16129 16.8387 2.73948 16.8387 4.75374V13.2463Z" fill="black"/>
<path d="M14.6607 4.59596C14.4743 4.45951 14.2247 4.44789 14.0255 4.56402C13.8269 4.68073 13.3868 4.73821 13.0338 4.78467C12.9606 4.79454 12.8886 4.80383 12.8189 4.8137C12.3248 4.40376 11.6936 4.17383 11.0427 4.17383C9.5766 4.17383 8.3735 5.30841 8.28815 6.73563C6.95847 6.51151 5.74086 5.81822 4.87802 4.77654C4.7497 4.62092 4.55054 4.54486 4.34963 4.57099C4.14989 4.59886 3.97918 4.72834 3.89847 4.91299C3.86131 4.99776 3.53731 5.79499 3.53731 7.76686C3.53731 9.47454 4.88499 10.7293 5.80938 11.3895C5.17705 11.6769 4.44834 11.7826 3.75621 11.706C3.48563 11.6769 3.23247 11.836 3.14305 12.0909C3.05363 12.3464 3.15234 12.6298 3.38112 12.7743C4.47273 13.463 5.73447 13.8271 7.03047 13.8271C11.1925 13.8271 13.7114 10.5574 13.8049 7.3337C13.9245 7.16009 14.1527 6.82215 14.5382 6.22931C14.6927 5.99067 14.8221 5.47621 14.8854 5.19112C14.936 4.96583 14.8471 4.73183 14.6607 4.59596ZM12.7574 6.80589C12.686 6.9046 12.6471 7.02422 12.6471 7.14615C12.6471 9.43796 10.9045 12.6658 7.03105 12.6658C6.68092 12.6658 6.3337 12.6338 5.99344 12.5711C6.4475 12.3992 6.8766 12.1594 7.27086 11.8558C7.4288 11.7344 7.51299 11.5393 7.49441 11.3413C7.47583 11.1433 7.35679 10.968 7.17854 10.878C7.15357 10.8652 4.69918 9.57441 4.69918 7.76744C4.69918 7.16183 4.7317 6.6857 4.77467 6.32338C5.91447 7.30467 7.36492 7.8917 8.89144 7.96718C8.90305 7.96776 8.91525 7.96834 8.92628 7.96776C9.26421 7.95789 9.51273 7.70996 9.51273 7.38712C9.51273 7.30699 9.49647 7.23092 9.46686 7.16125C9.45234 7.07415 9.4448 6.98647 9.4448 6.8988C9.4448 6.03654 10.1613 5.33512 11.0427 5.33512C11.4852 5.33512 11.9108 5.51628 12.211 5.83157C12.348 5.97441 12.5483 6.03886 12.7417 6.00112C12.8735 5.97615 13.0256 5.95641 13.1853 5.93551C13.2422 5.92796 13.2997 5.92041 13.3583 5.91228C12.9223 6.57654 12.7649 6.79544 12.7574 6.80589Z" fill="black"/>
</svg>

<svg width="18" height="18" fill="none" xmlns="http://www.w3.org/2000/svg">
  <path d="M13.2463 0H4.7537C2.088 0 0 2.088 0 4.7537v8.4926C0 15.912 2.088 18 4.7537 18h8.4926C15.912 18 18 15.912 18 13.2463V4.7537C18 2.088 15.9114 0 13.2463 0Zm3.5924 13.2463c0 2.0148-1.5782 3.5924-3.5924 3.5924H4.7537c-2.0142 0-3.5924-1.5782-3.5924-3.5924V4.7537c0-2.0142 1.5782-3.5924 3.5924-3.5924h8.4926c2.0148 0 3.5924 1.5782 3.5924 3.5924v8.4926Z" fill="#000"/>
  <path d="M14.6607 4.596a.5806.5806 0 0 0-.6352-.032c-.1986.1167-.6387.1742-.9917.2207-.0732.0098-.1452.0191-.2149.029a2.7897 2.7897 0 0 0-1.7762-.6399c-1.4661 0-2.6692 1.1346-2.7546 2.5618-1.3296-.224-2.5472-.9174-3.41-1.959-.1284-.1557-.3276-.2317-.5285-.2056a.5797.5797 0 0 0-.4511.342c-.0372.0848-.3612.882-.3612 2.8539 0 1.7076 1.3477 2.9624 2.272 3.6226-.6322.2874-1.361.3931-2.053.3165a.5818.5818 0 0 0-.6132.3849.5812.5812 0 0 0 .238.6834c1.0916.6887 2.3534 1.0528 3.6494 1.0528 4.162 0 6.6809-3.2697 6.7744-6.4934.1196-.1736.3478-.5116.7333-1.1044.1545-.2386.2839-.753.3472-1.0382a.58.58 0 0 0-.2247-.5951Zm-1.9033 2.2099a.5821.5821 0 0 0-.1103.3402c0 2.2919-1.7426 5.5197-5.616 5.5197-.3502 0-.6974-.032-1.0377-.0947a4.9841 4.9841 0 0 0 1.2775-.7153.5812.5812 0 0 0 .2235-.5145.5798.5798 0 0 0-.3159-.4633c-.025-.0128-2.4793-1.3036-2.4793-3.1106 0-.6056.0325-1.0817.0755-1.444a6.8367 6.8367 0 0 0 4.1167 1.6438.352.352 0 0 0 .0349.0006c.338-.01.5864-.2578.5864-.5807a.575.575 0 0 0-.0458-.2259 1.5955 1.5955 0 0 1-.0221-.2624c0-.8623.7165-1.5637 1.5979-1.5637.4425 0 .8681.1812 1.1683.4965a.5824.5824 0 0 0 .5307.1695c.1318-.025.2839-.0447.4436-.0656.0569-.0075.1144-.015.173-.0232-.436.6642-.5934.8831-.6009.8936Z" fill="#000"/>
</svg>
